src/icons/outline/symbols/eye.svg

<svg width="24" height="24" viewBox="0 0 24 24" fill="none" xmlns="http://www.w3.org/2000/svg">
<path fill-rule="evenodd" clip-rule="evenodd" d="M11.9999 7.78223C13.1133 7.78223 14.1569 8.21921 14.9394 9.02344C15.7218 9.8278 16.163 10.8874 16.163 12.0176C16.1629 14.3491 14.2971 16.2432 11.9999 16.2432V16.2324C9.70261 16.2324 7.83681 14.3385 7.83681 12.0068C7.837 9.67537 9.70272 7.78224 11.9999 7.78223ZM11.9999 9.29883C10.5353 9.29885 9.3417 10.5105 9.3417 11.9971C9.34173 13.4836 10.5353 14.6953 11.9999 14.6953C13.4645 14.6953 14.6581 13.4836 14.6581 11.9971C14.6581 10.5105 13.4646 9.29883 11.9999 9.29883Z" fill="#3C3B44"/>
<path fill-rule="evenodd" clip-rule="evenodd" d="M12.3778 5.00195C16.2795 5.08968 20.0806 7.86587 22.413 10.46C23.1953 11.3458 23.1954 12.6694 22.413 13.5449C20.0054 16.2328 16.0328 19.0527 11.9901 19.002H11.8397C7.88728 19.002 3.9644 16.1921 1.58681 13.5449C0.80436 12.6693 0.804431 11.3458 1.58681 10.46C3.90959 7.86574 7.74805 5.08942 11.6249 5.00195H12.3778ZM11.8593 6.5293C8.38825 6.52932 4.85695 9.0752 2.7001 11.4883C2.43947 11.7836 2.43933 12.2214 2.7001 12.5166C4.80891 14.8739 8.20757 17.3933 11.6464 17.4746H12.1005C15.6013 17.4744 19.1322 14.9295 21.289 12.5166C21.5498 12.2213 21.5498 11.7836 21.289 11.4883C19.112 9.05483 15.5208 6.4484 12.0097 6.54004H11.8593V6.5293Z" fill="#3C3B44"/>
</svg>

<svg xmlns="http://www.w3.org/2000/svg" width="24" height="24" fill="none" viewBox="0 0 24 24"><path fill="currentColor" fill-rule="evenodd" d="M12 7.782c1.113 0 2.157.437 2.94 1.241a4.27 4.27 0 0 1 1.223 2.995c0 2.331-1.866 4.225-4.163 4.225v-.01c-2.297 0-4.163-1.895-4.163-4.226S9.703 7.782 12 7.782M12 9.3c-1.465 0-2.658 1.212-2.658 2.698 0 1.487 1.193 2.698 2.658 2.698s2.658-1.211 2.658-2.698S13.465 9.3 12 9.3" clip-rule="evenodd"/><path fill="currentColor" fill-rule="evenodd" d="M12.378 5.002c3.901.088 7.703 2.864 10.035 5.458a2.32 2.32 0 0 1 0 3.085c-2.408 2.688-6.38 5.508-10.423 5.457h-.15c-3.953 0-7.876-2.81-10.253-5.457a2.32 2.32 0 0 1 0-3.085C3.91 7.866 7.748 5.09 11.625 5.002zm-.519 1.527c-3.47 0-7.002 2.546-9.159 4.96a.774.774 0 0 0 0 1.028c2.109 2.357 5.508 4.876 8.946 4.958h.454c3.501 0 7.032-2.546 9.189-4.958a.774.774 0 0 0 0-1.029c-2.177-2.433-5.768-5.04-9.28-4.948h-.15z" clip-rule="evenodd"/></svg>
